X: 21823
T: LOVE'S YOUNG DREAM
O: Irish air
Q: "Slow."
%R: jig, air
B: W. Hamilton "Universal Tune-Book" Vol. 2 Glasgow 1846 p.182 #3
S: http://s3-eu-west-1.amazonaws.com/itma.dl.printmaterial/book_pdfs/hamiltonvol2web.pdf
Z: 2016 John Chambers <jc:trillian.mit.edu>
M: 6/8
L: 1/8
K: Bb
% - - - - - - - - - - - - - - - - - - - - - - - - -
(f2e) |\
(d2B) (c2A) | B2G F2B |\
c3 (c2e/d/) | c3 (f2e) |\
(d2B) (c2A) | B2G F2A |\
B3 (d2c) | B3 :| (B2c) |\
(d2e) (.f2.f) | (g2a) (.b2.g) |
f2d (dc)B | c3 (f2e) |\
(d2B) (c2A) | B2G F2B |\
c3 (c2e/d/) | c3 (f=e_e) |\
(d2B) (c2A) | B2G F2A |\
~B3 (d2c) | B3 |]
% - - - - - - - - - - - - - - - - - - - - - - - - -

%%sep 1 1 500
%%sep 1 1 500

